;FLAVOR:Marlin
;TIME:7439
;Filament used: 3.59945m
;Layer height: 0.18
;MINX:84.987
;MINY:132.952
;MINZ:0.2
;MAXX:215.013
;MAXY:167.145
;MAXZ:9.92
;Generated with Cura_SteamEngine 5.4.0
M140 S35
M105
M190 S35
M104 S230
M105
M109 S230
M82 ;absolute extrusion mode
G28 ; home all axes
 M117 Purge extruder
 G92 E0 ; reset extruder
 G1 Z1.0 F3000 ; move z up little to prevent scratching of surface
 G1 X2 Y20 Z0.3 F5000.0 ; move to start-line position
 G1 X2 Y200.0 Z0.3 F1500.0 E15 ; draw 1st line
 G1 X2 Y200.0 Z0.4 F5000.0 ; move to side a little
 G1 X2 Y20 Z0.4 F1500.0 E30 ; draw 2nd line
 G92 E0 ; reset extruder
 G1 Z1.0 F3000 ; move z up little to prevent scratching of surface
G92 E0
G92 E0
G1 F1500 E-3.5
;LAYER_COUNT:55
;LAYER:0
M107
G1 F300 Z0.7
G0 F6000 X89.669 Y135.096 Z0.7
;TYPE:SKIRT
G1 F300 Z0.2
G1 F1500 E0
G1 F1200 X90.504 Y134.549 E0.03073
G1 X91.416 Y134.064 E0.06253
G1 X92.334 Y133.677 E0.09321
G1 X93.285 Y133.37 E0.12397
G1 X94.258 Y133.149 E0.15469
G1 X95.152 Y133.025 E0.18248
G1 X96.083 Y132.973 E0.21119
G1 X96.89 Y132.961 E0.23603
G1 X113.533 Y132.959 E0.74843
G1 X114.289 Y132.952 E0.7717
G1 X114.469 Y132.96 E0.77725
G1 X131.533 Y132.959 E1.3026
G1 X132.289 Y132.952 E1.32588
G1 X132.469 Y132.96 E1.33143
G1 X149.533 Y132.959 E1.85678
G1 X150.289 Y132.952 E1.88006
G1 X150.469 Y132.96 E1.8856
G1 X167.533 Y132.959 E2.41096
G1 X168.289 Y132.952 E2.43423
G1 X168.469 Y132.96 E2.43978
G1 X185.533 Y132.959 E2.96513
G1 X186.289 Y132.952 E2.98841
G1 X186.469 Y132.96 E2.99396
G1 X203.064 Y132.959 E3.50487
G1 X203.958 Y132.973 E3.5324
G1 X204.955 Y133.035 E3.56315
G1 X205.942 Y133.185 E3.59389
G1 X206.914 Y133.423 E3.6247
G1 X207.799 Y133.723 E3.65347
G1 X208.771 Y134.151 E3.68616
G1 X209.642 Y134.634 E3.71683
G1 X210.391 Y135.136 E3.74459
G1 X211.245 Y135.826 E3.77839
G1 X211.916 Y136.476 E3.80715
G1 X212.569 Y137.228 E3.83781
G1 X213.192 Y138.091 E3.87058
G1 X213.653 Y138.866 E3.89834
G1 X214.128 Y139.855 E3.93212
G1 X214.476 Y140.792 E3.9629
G1 X214.739 Y141.753 E3.99357
G1 X214.902 Y142.64 E4.02134
G1 X215.005 Y143.724 E4.05486
G1 X215.013 Y144.559 E4.08057
G1 X214.986 Y145.485 E4.10909
G1 X214.788 Y149.87 E4.24423
G1 X214.737 Y150.745 E4.27121
G1 X214.629 Y151.737 E4.30194
G1 X214.436 Y152.714 E4.3326
G1 X214.187 Y153.581 E4.36037
G1 X213.985 Y154.143 E4.37875
G1 X213.634 Y155.036 E4.40829
G1 X211.723 Y159.654 E4.56216
G1 X211.423 Y160.351 E4.58552
G1 X211.016 Y161.192 E4.61429
G1 X210.469 Y162.105 E4.64706
G1 X209.881 Y162.91 E4.67775
G1 X209.223 Y163.662 E4.70851
G1 X208.549 Y164.31 E4.7373
G1 X207.72 Y164.975 E4.77002
G1 X206.97 Y165.476 E4.79778
G1 X206.011 Y166.002 E4.83146
G1 X205.184 Y166.364 E4.85925
G1 X204.142 Y166.711 E4.89306
G1 X203.17 Y166.939 E4.9238
G1 X202.196 Y167.079 E4.9541
G1 X201.458 Y167.129 E4.97687
G1 X200.853 Y167.143 E4.9955
G1 X189.432 Y167.145 E5.34712
G1 X187.126 Y167.106 E5.41813
G1 X184.557 Y167.108 E5.49722
G1 X183.004 Y167.141 E5.54504
G1 X171.432 Y167.144 E5.90131
G1 X169.069 Y167.105 E5.97407
G1 X166.491 Y167.109 E6.05344
G1 X164.59 Y167.145 E6.11198
G1 X153.434 Y167.144 E6.45544
G1 X151.151 Y167.107 E6.52574
G1 X148.581 Y167.107 E6.60486
G1 X147.013 Y167.141 E6.65315
G1 X135.433 Y167.144 E7.00966
G1 X133.108 Y167.106 E7.08125
G1 X130.54 Y167.108 E7.16032
G1 X128.968 Y167.142 E7.20873
G1 X117.431 Y167.144 E7.56392
G1 X115.128 Y167.106 E7.63483
G1 X112.56 Y167.108 E7.71389
G1 X111.024 Y167.141 E7.76119
G1 X99.606 Y167.145 E8.11272
G1 X98.706 Y167.131 E8.14043
G1 X97.709 Y167.069 E8.17119
G1 X96.722 Y166.919 E8.20192
G1 X95.75 Y166.681 E8.23273
G1 X94.865 Y166.381 E8.2615
G1 X93.894 Y165.953 E8.29417
G1 X93.076 Y165.503 E8.32291
G1 X92.194 Y164.911 E8.35562
G1 X91.492 Y164.345 E8.38338
G1 X90.703 Y163.581 E8.41719
G1 X90.052 Y162.824 E8.44793
G1 X89.506 Y162.066 E8.47669
G1 X88.968 Y161.16 E8.50913
G1 X88.632 Y160.472 E8.53271
G1 X88.406 Y159.957 E8.55002
G1 X86.316 Y154.92 E8.71792
G1 X86.037 Y154.221 E8.74109
G1 X85.712 Y153.278 E8.7718
G1 X85.491 Y152.403 E8.79958
G1 X85.318 Y151.339 E8.83277
G1 X85.271 Y150.778 E8.8501
G1 X85.199 Y149.631 E8.88548
G1 X85.013 Y145.433 E9.01485
G1 X84.987 Y144.528 E9.04273
G1 X85.006 Y143.53 E9.07346
G1 X85.104 Y142.6 E9.10225
G1 X85.307 Y141.556 E9.13499
G1 X85.567 Y140.659 E9.16375
G1 X85.951 Y139.668 E9.19647
G1 X86.35 Y138.859 E9.22424
G1 X86.885 Y137.978 E9.25597
G1 X87.517 Y137.121 E9.28876
G1 X88.18 Y136.376 E9.31946
G1 X88.835 Y135.756 E9.34723
G1 X89.669 Y135.096 E9.37997
G0 F6000 X89.868 Y135.4
G1 F1200 X90.703 Y134.853 E9.4107
G1 X91.557 Y134.398 E9.44049
G1 X92.446 Y134.022 E9.47021
G1 X93.366 Y133.724 E9.49998
G1 X94.308 Y133.509 E9.52973
G1 X95.202 Y133.385 E9.55752
G1 X96.088 Y133.336 E9.58484
G1 X96.89 Y133.324 E9.60953
G1 X113.536 Y133.322 E10.12202
G1 X114.273 Y133.315 E10.14471
G1 X114.453 Y133.323 E10.15026
G1 X131.536 Y133.322 E10.67619
G1 X132.273 Y133.315 E10.69888
G1 X132.453 Y133.323 E10.70443
G1 X149.536 Y133.322 E11.23037
G1 X150.273 Y133.315 E11.25306
G1 X150.453 Y133.323 E11.25861
G1 X167.536 Y133.322 E11.78455
G1 X168.273 Y133.315 E11.80724
G1 X168.453 Y133.323 E11.81279
G1 X185.536 Y133.322 E12.33872
G1 X186.273 Y133.315 E12.36142
G1 X186.453 Y133.323 E12.36696
G1 X203.059 Y133.322 E12.87822
G1 X203.936 Y133.335 E12.90522
G1 X204.901 Y133.394 E12.93498
G1 X205.856 Y133.538 E12.96472
G1 X206.797 Y133.767 E12.99453
G1 X207.682 Y134.067 E13.0233
G1 X208.595 Y134.469 E13.05402
G1 X209.44 Y134.936 E13.08374
G1 X210.189 Y135.438 E13.1115
G1 X210.992 Y136.087 E13.14329
G1 X211.663 Y136.737 E13.17205
G1 X212.295 Y137.466 E13.20175
G1 X212.88 Y138.277 E13.23254
G1 X213.341 Y139.052 E13.2603
G1 X213.788 Y139.982 E13.29207
G1 X214.126 Y140.888 E13.32184
G1 X214.382 Y141.819 E13.35157
G1 X214.545 Y142.706 E13.37933
G1 X214.642 Y143.728 E13.41094
G1 X214.65 Y144.548 E13.43619
G1 X214.623 Y145.469 E13.46455
G1 X214.426 Y149.849 E13.59954
G1 X214.376 Y150.706 E13.62597
G1 X214.273 Y151.667 E13.65572
G1 X214.087 Y152.614 E13.68544
G1 X213.838 Y153.481 E13.71321
G1 X213.647 Y154.01 E13.73052
G1 X213.299 Y154.897 E13.75986
G1 X211.39 Y159.51 E13.91356
G1 X211.096 Y160.193 E13.93645
G1 X210.689 Y161.034 E13.96522
G1 X210.176 Y161.891 E13.99597
G1 X209.607 Y162.671 E14.02569
G1 X208.971 Y163.4 E14.05548
G1 X208.297 Y164.048 E14.08426
G1 X207.518 Y164.673 E14.11501
G1 X206.768 Y165.174 E14.14278
G1 X205.865 Y165.669 E14.17448
G1 X205.038 Y166.031 E14.20228
G1 X204.059 Y166.358 E14.23405
G1 X203.118 Y166.58 E14.26382
G1 X202.171 Y166.717 E14.29328
G1 X201.449 Y166.766 E14.31556
G1 X200.853 Y166.78 E14.33391
G1 X189.438 Y166.782 E14.68535
G1 X187.132 Y166.743 E14.75636
G1 X184.549 Y166.745 E14.83588
G1 X183.004 Y166.778 E14.88346
G1 X171.438 Y166.781 E15.23954
G1 X169.074 Y166.742 E15.31233
G1 X166.484 Y166.746 E15.39207
G1 X164.59 Y166.782 E15.45039
G1 X153.44 Y166.781 E15.79367
G1 X151.157 Y166.744 E15.86397
G1 X148.573 Y166.744 E15.94352
G1 X147.013 Y166.778 E15.99156
G1 X135.439 Y166.781 E16.34789
G1 X133.114 Y166.743 E16.41948
G1 X130.532 Y166.745 E16.49898
G1 X128.968 Y166.779 E16.54714
G1 X117.437 Y166.781 E16.90215
G1 X115.134 Y166.743 E16.97306
G1 X112.552 Y166.745 E17.05255
G1 X111.024 Y166.778 E17.0996
G1 X99.611 Y166.782 E17.45098
G1 X98.728 Y166.769 E17.47817
G1 X97.763 Y166.71 E17.50793
G1 X96.808 Y166.566 E17.53767
G1 X95.867 Y166.337 E17.56748
G1 X94.982 Y166.037 E17.59625
G1 X94.069 Y165.635 E17.62697
G1 X93.251 Y165.185 E17.65571
G1 X92.422 Y164.628 E17.68646
G1 X91.72 Y164.062 E17.71422
G1 X90.978 Y163.344 E17.74601
G1 X90.347 Y162.612 E17.77576
G1 X89.801 Y161.854 E17.80452
G1 X89.294 Y161.001 E17.83507
G1 X88.964 Y160.326 E17.8582
G1 X88.741 Y159.818 E17.87529
G1 X86.653 Y154.785 E18.04304
G1 X86.38 Y154.102 E18.06569
G1 X86.064 Y153.189 E18.09543
G1 X85.843 Y152.314 E18.12322
G1 X85.68 Y151.308 E18.15459
G1 X85.633 Y150.755 E18.17168
G1 X85.562 Y149.615 E18.20685
G1 X85.376 Y145.422 E18.33606
G1 X85.35 Y144.534 E18.36341
G1 X85.367 Y143.568 E18.39316
G1 X85.465 Y142.638 E18.42195
G1 X85.656 Y141.657 E18.45272
G1 X85.916 Y140.76 E18.48147
G1 X86.277 Y139.829 E18.51221
G1 X86.676 Y139.02 E18.53999
G1 X87.195 Y138.167 E18.57073
G1 X87.788 Y137.362 E18.60151
G1 X88.43 Y136.64 E18.63125
G1 X89.085 Y136.02 E18.65902
G1 X89.868 Y135.4 E18.68977
G0 F6000 X90.067 Y135.703
G1 F1200 X90.874 Y135.173 E18.71949
G1 X91.699 Y134.732 E18.74829
G1 X92.558 Y134.367 E18.77703
G1 X93.447 Y134.078 E18.80581
G1 X94.358 Y133.869 E18.83458
G1 X95.252 Y133.745 E18.86237
G1 X96.093 Y133.699 E18.8883
G1 X96.89 Y133.687 E18.91284
G1 X113.54 Y133.685 E19.42545
G1 X114.257 Y133.678 E19.44753
G1 X114.437 Y133.686 E19.45307
G1 X131.54 Y133.685 E19.97963
G1 X132.257 Y133.678 E20.0017
G1 X132.437 Y133.686 E20.00725
G1 X149.54 Y133.685 E20.5338
G1 X150.257 Y133.678 E20.55588
G1 X150.437 Y133.686 E20.56143
G1 X167.54 Y133.685 E21.08798
G1 X168.257 Y133.678 E21.11006
G1 X168.437 Y133.686 E21.1156
G1 X185.54 Y133.685 E21.64216
G1 X186.257 Y133.678 E21.66423
G1 X186.437 Y133.686 E21.66978
G1 X203.054 Y133.685 E22.18137
G1 X203.914 Y133.697 E22.20785
G1 X204.847 Y133.753 E22.23663
G1 X205.771 Y133.891 E22.26539
G1 X206.68 Y134.111 E22.29419
G1 X207.565 Y134.411 E22.32295
G1 X208.42 Y134.787 E22.35171
G1 X209.238 Y135.238 E22.38047
G1 X209.987 Y135.74 E22.40823
G1 X210.739 Y136.348 E22.438
G1 X211.41 Y136.998 E22.46676
G1 X212.021 Y137.704 E22.49551
G1 X212.568 Y138.463 E22.52431
G1 X213.029 Y139.238 E22.55207
G1 X213.448 Y140.109 E22.58183
G1 X213.776 Y140.985 E22.61063
G1 X214.025 Y141.885 E22.63938
G1 X214.188 Y142.772 E22.66714
G1 X214.279 Y143.732 E22.69683
G1 X214.287 Y144.537 E22.72162
G1 X214.26 Y145.453 E22.74983
G1 X214.064 Y149.828 E22.88466
G1 X214.015 Y150.668 E22.91057
G1 X213.917 Y151.597 E22.93933
G1 X213.738 Y152.514 E22.96809
G1 X213.489 Y153.381 E22.99586
G1 X213.309 Y153.878 E23.01214
G1 X212.964 Y154.758 E23.04124
G1 X211.056 Y159.367 E23.19481
G1 X210.769 Y160.035 E23.2172
G1 X210.362 Y160.876 E23.24596
G1 X209.882 Y161.678 E23.27474
G1 X209.333 Y162.433 E23.30348
G1 X208.719 Y163.138 E23.33226
G1 X208.045 Y163.786 E23.36105
G1 X207.316 Y164.371 E23.38982
G1 X206.566 Y164.872 E23.41759
G1 X205.719 Y165.336 E23.44732
G1 X204.892 Y165.698 E23.47512
G1 X203.975 Y166.005 E23.50489
G1 X203.066 Y166.221 E23.53365
G1 X202.146 Y166.355 E23.56228
G1 X201.44 Y166.403 E23.58406
G1 X200.853 Y166.417 E23.60214
G1 X189.444 Y166.419 E23.95339
G1 X187.138 Y166.38 E24.0244
G1 X184.541 Y166.382 E24.10435
G1 X183.004 Y166.415 E24.15168
G1 X171.444 Y166.418 E24.50758
G1 X169.079 Y166.379 E24.58041
G1 X166.477 Y166.383 E24.66051
G1 X164.59 Y166.419 E24.71862
G1 X153.446 Y166.418 E25.06171
G1 X151.163 Y166.381 E25.13201
G1 X148.565 Y166.381 E25.21199
G1 X147.013 Y166.415 E25.25979
G1 X135.445 Y166.418 E25.61593
G1 X133.12 Y166.38 E25.68752
G1 X130.524 Y166.382 E25.76745
G1 X128.968 Y166.416 E25.81536
G1 X117.443 Y166.418 E26.17019
G1 X115.14 Y166.38 E26.2411
G1 X112.544 Y166.382 E26.32102
G1 X111.024 Y166.415 E26.36783
G1 X99.616 Y166.419 E26.71905
G1 X98.75 Y166.407 E26.74572
G1 X97.817 Y166.351 E26.77449
G1 X96.893 Y166.213 E26.80326
G1 X95.984 Y165.993 E26.83205
G1 X95.099 Y165.693 E26.86082
G1 X94.244 Y165.317 E26.88958
G1 X93.453 Y164.883 E26.91735
G1 X92.65 Y164.345 E26.94711
G1 X91.948 Y163.779 E26.97487
G1 X91.253 Y163.107 E27.00464
G1 X90.642 Y162.4 E27.03341
G1 X90.096 Y161.642 E27.06217
G1 X89.62 Y160.841 E27.09085
G1 X89.296 Y160.18 E27.11352
G1 X89.076 Y159.679 E27.13036
G1 X86.99 Y154.65 E27.29798
G1 X86.723 Y153.983 E27.3201
G1 X86.416 Y153.1 E27.34888
G1 X86.195 Y152.225 E27.37667
G1 X86.042 Y151.277 E27.40623
G1 X85.995 Y150.733 E27.42304
G1 X85.925 Y149.599 E27.45802
G1 X85.739 Y145.411 E27.58709
G1 X85.713 Y144.54 E27.61391
G1 X85.728 Y143.606 E27.64267
G1 X85.826 Y142.676 E27.67146
G1 X86.005 Y141.758 E27.70026
G1 X86.265 Y140.861 E27.72901
G1 X86.603 Y139.99 E27.75777
G1 X87.002 Y139.181 E27.78555
G1 X87.487 Y138.382 E27.81432
G1 X88.06 Y137.603 E27.84409
G1 X88.68 Y136.904 E27.87286
G1 X89.335 Y136.284 E27.90063
G1 X90.067 Y135.703 E27.9294
G0 F6000 X90.292 Y135.988
G1 F1200 X91.046 Y135.493 E27.95717
G1 X91.841 Y135.066 E27.98495
G1 X92.671 Y134.712 E28.01273
G1 X93.529 Y134.432 E28.04052
G1 X94.408 Y134.229 E28.06829
G1 X95.302 Y134.105 E28.09608
G1 X96.098 Y134.062 E28.12062
G1 X96.89 Y134.05 E28.14501
G1 X113.544 Y134.048 E28.65774
G1 X114.241 Y134.041 E28.6792
G1 X114.421 Y134.049 E28.68475
G1 X131.544 Y134.048 E29.21192
G1 X132.241 Y134.041 E29.23338
G1 X132.421 Y134.049 E29.23892
G1 X149.544 Y134.048 E29.76609
G1 X150.241 Y134.041 E29.78755
G1 X150.421 Y134.049 E29.7931
G1 X167.544 Y134.048 E30.32027
G1 X168.241 Y134.041 E30.34173
G1 X168.421 Y134.049 E30.34728
G1 X185.544 Y134.048 E30.87445
G1 X186.241 Y134.041 E30.89591
G1 X186.421 Y134.049 E30.90145
G1 X203.049 Y134.048 E31.41339
G1 X203.893 Y134.059 E31.43937
G1 X204.794 Y134.112 E31.46716
G1 X205.686 Y134.244 E31.49492
G1 X206.564 Y134.455 E31.52272
G1 X207.419 Y134.743 E31.5505
G1 X208.245 Y135.105 E31.57826
G1 X209.036 Y135.54 E31.60605
G1 X209.785 Y136.042 E31.63381
G1 X210.487 Y136.609 E31.6616
G1 X211.136 Y137.236 E31.68938
G1 X211.727 Y137.917 E31.71714
G1 X212.256 Y138.649 E31.74494
G1 X212.717 Y139.424 E31.77271
G1 X213.108 Y140.237 E31.80048
G1 X213.426 Y141.082 E31.82828
G1 X213.668 Y141.951 E31.85605
G1 X213.831 Y142.838 E31.88382
G1 X213.916 Y143.736 E31.91159
G1 X213.924 Y144.526 E31.93591
G1 X213.897 Y145.437 E31.96397
G1 X213.702 Y149.807 E32.09864
G1 X213.654 Y150.631 E32.12405
G1 X213.561 Y151.528 E32.15182
G1 X213.389 Y152.414 E32.17961
G1 X213.14 Y153.281 E32.20738
G1 X212.971 Y153.746 E32.22261
G1 X212.629 Y154.619 E32.25148
G1 X210.722 Y159.224 E32.40493
G1 X210.442 Y159.877 E32.4268
G1 X210.05 Y160.69 E32.45459
G1 X209.588 Y161.465 E32.48237
G1 X209.059 Y162.195 E32.51012
G1 X208.467 Y162.877 E32.53793
G1 X207.817 Y163.503 E32.56571
G1 X207.114 Y164.069 E32.5935
G1 X206.364 Y164.57 E32.62126
G1 X205.573 Y165.003 E32.64903
G1 X204.746 Y165.365 E32.67682
G1 X203.891 Y165.652 E32.70459
G1 X203.013 Y165.862 E32.73238
G1 X202.121 Y165.993 E32.76014
G1 X201.431 Y166.04 E32.78143
G1 X200.853 Y166.054 E32.79923
G1 X189.45 Y166.056 E33.1503
G1 X187.144 Y166.017 E33.2213
G1 X184.533 Y166.019 E33.30169
G1 X183.004 Y166.052 E33.34877
G1 X171.45 Y166.055 E33.70449
G1 X169.084 Y166.016 E33.77734
G1 X166.47 Y166.02 E33.85782
G1 X164.59 Y166.056 E33.91571
G1 X153.452 Y166.055 E34.25862
G1 X151.169 Y166.018 E34.32891
G1 X148.557 Y166.018 E34.40933
G1 X147.013 Y166.052 E34.45688
G1 X135.451 Y166.055 E34.81284
G1 X133.126 Y166.017 E34.88443
G1 X130.516 Y166.019 E34.96478
G1 X128.968 Y166.053 E35.01245
G1 X117.449 Y166.055 E35.36709
G1 X115.146 Y166.017 E35.43801
G1 X112.536 Y166.019 E35.51836
G1 X111.024 Y166.052 E35.56492
G1 X99.621 Y166.056 E35.91599
G1 X98.771 Y166.045 E35.94216
G1 X97.87 Y165.992 E35.96995
G1 X96.978 Y165.86 E35.99771
G1 X96.1 Y165.649 E36.02551
G1 X95.245 Y165.361 E36.05329
G1 X94.419 Y164.999 E36.08105
G1 X93.628 Y164.565 E36.10883
G1 X92.878 Y164.062 E36.13663
G1 X92.176 Y163.496 E36.16439
G1 X91.527 Y162.869 E36.19218
G1 X90.936 Y162.187 E36.21996
G1 X90.408 Y161.456 E36.24772
G1 X89.946 Y160.681 E36.2755
G1 X89.628 Y160.034 E36.2977
G1 X89.411 Y159.54 E36.31431
G1 X87.327 Y154.515 E36.48179
G1 X87.066 Y153.863 E36.50341
G1 X86.768 Y153.011 E36.5312
G1 X86.547 Y152.136 E36.55899
G1 X86.404 Y151.245 E36.58677
G1 X86.357 Y150.711 E36.60327
G1 X86.288 Y149.583 E36.63806
G1 X86.102 Y145.4 E36.76697
G1 X86.076 Y144.545 E36.79331
G1 X86.089 Y143.643 E36.82108
G1 X86.182 Y142.745 E36.84888
G1 X86.354 Y141.859 E36.87666
G1 X86.604 Y140.992 E36.90444
G1 X86.929 Y140.151 E36.9322
G1 X87.328 Y139.342 E36.95997
G1 X87.797 Y138.571 E36.98776
G1 X88.332 Y137.844 E37.01555
G1 X88.93 Y137.168 E37.04333
G1 X89.585 Y136.548 E37.0711
G1 X90.292 Y135.988 E37.09887
G1 F1500 E33.59887
G1 F300 Z0.7
;MESH:main-actuator-finger-left.3mf
G0 F6000 X113.518 Y150.058 Z0.7
;TYPE:WALL-INNER
G1 F300 Z0.2
G1 F1500 E37.09887
G1 F820.3 X114.571 Y150.056 E37.14629
G0 F6000 X115.329 Y149.863
G0 X112.982 Y150.271
G0 X110.242 Y154.604
