;FLAVOR:Marlin
;TIME:7470
;Filament used: 3.59957m
;Layer height: 0.18
;MINX:84.987
;MINY:132.95
;MINZ:0.2
;MAXX:215.012
;MAXY:167.145
;MAXZ:9.92
;Generated with Cura_SteamEngine 5.4.0
M140 S35
M105
M190 S35
M104 S230
M105
M109 S230
M82 ;absolute extrusion mode
G28 ; home all axes
 M117 Purge extruder
 G92 E0 ; reset extruder
 G1 Z1.0 F3000 ; move z up little to prevent scratching of surface
 G1 X2 Y20 Z0.3 F5000.0 ; move to start-line position
 G1 X2 Y200.0 Z0.3 F1500.0 E15 ; draw 1st line
 G1 X2 Y200.0 Z0.4 F5000.0 ; move to side a little
 G1 X2 Y20 Z0.4 F1500.0 E30 ; draw 2nd line
 G92 E0 ; reset extruder
 G1 Z1.0 F3000 ; move z up little to prevent scratching of surface
G92 E0
G92 E0
G1 F1500 E-3.5
;LAYER_COUNT:55
;LAYER:0
M107
G1 F300 Z0.7
G0 F6000 X89.669 Y135.096 Z0.7
;TYPE:SKIRT
G1 F300 Z0.2
G1 F1500 E0
G1 F1200 X90.504 Y134.549 E0.03073
G1 X91.416 Y134.064 E0.06253
G1 X92.334 Y133.677 E0.09321
G1 X93.285 Y133.37 E0.12397
G1 X94.258 Y133.149 E0.15469
G1 X95.152 Y133.025 E0.18248
G1 X96.081 Y132.973 E0.21112
G1 X96.887 Y132.961 E0.23594
G1 X113.454 Y132.96 E0.74599
G1 X114.265 Y132.95 E0.77096
G1 X114.502 Y132.96 E0.77827
G1 X131.454 Y132.96 E1.30017
G1 X132.265 Y132.95 E1.32514
G1 X132.502 Y132.96 E1.33245
G1 X149.454 Y132.96 E1.85435
G1 X150.265 Y132.95 E1.87932
G1 X150.502 Y132.96 E1.88662
G1 X167.454 Y132.96 E2.40853
G1 X168.265 Y132.95 E2.4335
G1 X168.502 Y132.96 E2.4408
G1 X185.454 Y132.96 E2.96271
G1 X186.265 Y132.95 E2.98768
G1 X186.502 Y132.96 E2.99498
G1 X203.216 Y132.961 E3.50956
G1 X203.958 Y132.974 E3.53241
G1 X204.954 Y133.036 E3.56313
G1 X205.942 Y133.187 E3.5939
G1 X206.912 Y133.425 E3.62465
G1 X207.857 Y133.748 E3.6554
G1 X208.77 Y134.153 E3.68615
G1 X209.641 Y134.635 E3.7168
G1 X210.391 Y135.137 E3.74458
G1 X211.245 Y135.827 E3.77838
G1 X211.916 Y136.477 E3.80714
G1 X212.611 Y137.282 E3.83989
G1 X213.191 Y138.092 E3.87056
G1 X213.653 Y138.867 E3.89834
G1 X214.128 Y139.857 E3.93214
G1 X214.475 Y140.793 E3.96288
G1 X214.738 Y141.755 E3.99358
G1 X214.901 Y142.642 E4.02135
G1 X215.004 Y143.726 E4.05487
G1 X215.012 Y144.566 E4.08073
G1 X214.989 Y145.376 E4.10568
G1 X214.79 Y149.821 E4.24267
G1 X214.738 Y150.732 E4.27076
G1 X214.637 Y151.692 E4.30048
G1 X214.44 Y152.704 E4.33222
G1 X214.184 Y153.594 E4.36073
G1 X213.983 Y154.152 E4.37899
G1 X213.565 Y155.208 E4.41396
G1 X211.772 Y159.538 E4.55824
G1 X211.423 Y160.351 E4.58548
G1 X211.016 Y161.192 E4.61425
G1 X210.469 Y162.105 E4.64701
G1 X209.881 Y162.91 E4.67771
G1 X209.223 Y163.662 E4.70847
G1 X208.549 Y164.31 E4.73725
G1 X207.72 Y164.975 E4.76997
G1 X206.97 Y165.476 E4.79774
G1 X206.011 Y166.002 E4.83142
G1 X205.184 Y166.364 E4.85921
G1 X204.142 Y166.711 E4.89302
G1 X203.17 Y166.939 E4.92376
G1 X202.196 Y167.079 E4.95405
G1 X201.458 Y167.129 E4.97683
G1 X200.853 Y167.143 E4.99546
G1 X189.432 Y167.145 E5.34708
G1 X187.126 Y167.106 E5.41809
G1 X184.557 Y167.108 E5.49718
G1 X183.005 Y167.141 E5.54497
G1 X171.435 Y167.145 E5.90118
G1 X169.145 Y167.107 E5.97169
G1 X166.575 Y167.107 E6.05081
G1 X164.983 Y167.141 E6.09984
G1 X153.433 Y167.145 E6.45543
G1 X151.223 Y167.108 E6.52348
G1 X148.661 Y167.106 E6.60236
G1 X147.04 Y167.141 E6.65228
G1 X135.434 Y167.145 E7.00959
G1 X133.165 Y167.107 E7.07946
G1 X130.594 Y167.107 E7.15861
G1 X128.996 Y167.141 E7.20782
G1 X117.434 Y167.145 E7.56378
G1 X115.165 Y167.107 E7.63365
G1 X112.594 Y167.107 E7.7128
G1 X110.996 Y167.141 E7.76201
G1 X99.606 Y167.145 E8.11268
G1 X98.706 Y167.131 E8.14039
G1 X97.709 Y167.069 E8.17115
G1 X96.722 Y166.919 E8.20188
G1 X95.75 Y166.681 E8.23269
G1 X94.865 Y166.381 E8.26146
G1 X93.894 Y165.953 E8.29413
G1 X93.076 Y165.503 E8.32287
G1 X92.194 Y164.911 E8.35558
G1 X91.492 Y164.345 E8.38334
G1 X90.703 Y163.581 E8.41715
G1 X90.052 Y162.824 E8.44789
G1 X89.506 Y162.066 E8.47665
G1 X88.968 Y161.16 E8.50909
G1 X88.632 Y160.472 E8.53267
G1 X88.406 Y159.957 E8.54998
G1 X86.316 Y154.92 E8.71788
G1 X86.037 Y154.221 E8.74105
G1 X85.712 Y153.278 E8.77176
G1 X85.491 Y152.403 E8.79954
G1 X85.318 Y151.339 E8.83273
G1 X85.271 Y150.778 E8.85006
G1 X85.199 Y149.631 E8.88544
G1 X85.013 Y145.433 E9.01481
G1 X84.987 Y144.528 E9.04269
G1 X85.006 Y143.53 E9.07342
G1 X85.104 Y142.6 E9.10221
G1 X85.307 Y141.556 E9.13495
G1 X85.567 Y140.659 E9.16371
G1 X85.951 Y139.668 E9.19643
G1 X86.35 Y138.859 E9.2242
G1 X86.885 Y137.978 E9.25593
G1 X87.517 Y137.121 E9.28871
G1 X88.18 Y136.376 E9.31942
G1 X88.835 Y135.756 E9.34719
G1 X89.669 Y135.096 E9.37993
G0 F6000 X89.868 Y135.4
G1 F1200 X90.703 Y134.853 E9.41066
G1 X91.557 Y134.398 E9.44045
G1 X92.446 Y134.022 E9.47017
G1 X93.366 Y133.724 E9.49994
G1 X94.308 Y133.509 E9.52969
G1 X95.202 Y133.385 E9.55748
G1 X96.086 Y133.336 E9.58474
G1 X96.887 Y133.324 E9.6094
G1 X113.459 Y133.323 E10.11961
G1 X114.25 Y133.313 E10.14396
G1 X114.487 Y133.323 E10.15126
G1 X131.459 Y133.323 E10.67378
G1 X132.25 Y133.313 E10.69814
G1 X132.487 Y133.323 E10.70544
G1 X149.459 Y133.323 E11.22796
G1 X150.25 Y133.313 E11.25232
G1 X150.487 Y133.323 E11.25962
G1 X167.459 Y133.323 E11.78214
G1 X168.25 Y133.313 E11.8065
G1 X168.487 Y133.323 E11.8138
G1 X185.459 Y133.323 E12.33632
G1 X186.25 Y133.313 E12.36068
G1 X186.487 Y133.323 E12.36798
G1 X203.21 Y133.324 E12.88283
G1 X203.936 Y133.336 E12.90519
G1 X204.9 Y133.395 E12.93492
G1 X205.856 Y133.54 E12.96469
G1 X206.795 Y133.769 E12.99445
G1 X207.71 Y134.08 E13.0242
G1 X208.595 Y134.471 E13.05399
G1 X209.439 Y134.937 E13.08367
G1 X210.189 Y135.439 E13.11146
G1 X210.992 Y136.088 E13.14324
G1 X211.663 Y136.738 E13.17201
G1 X212.316 Y137.494 E13.20276
G1 X212.879 Y138.278 E13.23248
G1 X213.341 Y139.053 E13.26025
G1 X213.788 Y139.984 E13.29205
G1 X214.125 Y140.889 E13.32178
G1 X214.381 Y141.821 E13.35154
G1 X214.544 Y142.708 E13.3793
G1 X214.641 Y143.73 E13.41091
G1 X214.649 Y144.556 E13.43634
G1 X214.626 Y145.36 E13.4611
G1 X214.428 Y149.8 E13.59794
G1 X214.377 Y150.695 E13.62554
G1 X214.281 Y151.623 E13.65426
G1 X214.091 Y152.604 E13.68502
G1 X213.842 Y153.471 E13.71279
G1 X213.645 Y154.019 E13.73072
G1 X213.23 Y155.069 E13.76548
G1 X211.439 Y159.395 E13.90963
G1 X211.096 Y160.193 E13.93637
G1 X210.689 Y161.034 E13.96514
G1 X210.176 Y161.891 E13.99589
G1 X209.607 Y162.671 E14.02561
G1 X208.971 Y163.4 E14.0554
G1 X208.297 Y164.048 E14.08418
G1 X207.518 Y164.673 E14.11493
G1 X206.768 Y165.174 E14.1427
G1 X205.865 Y165.669 E14.1744
G1 X205.038 Y166.031 E14.2022
G1 X204.059 Y166.358 E14.23397
G1 X203.118 Y166.58 E14.26374
G1 X202.171 Y166.717 E14.2932
G1 X201.449 Y166.766 E14.31548
G1 X200.853 Y166.78 E14.33383
G1 X189.438 Y166.782 E14.68527
G1 X187.132 Y166.743 E14.75627
G1 X184.549 Y166.745 E14.8358
G1 X183.005 Y166.778 E14.88334
G1 X171.441 Y166.782 E15.23937
G1 X169.151 Y166.744 E15.30988
G1 X166.567 Y166.744 E15.38943
G1 X164.983 Y166.778 E15.43821
G1 X153.439 Y166.782 E15.79362
G1 X151.229 Y166.745 E15.86167
G1 X148.653 Y166.743 E15.94098
G1 X147.04 Y166.778 E15.99065
G1 X135.44 Y166.782 E16.34778
G1 X133.171 Y166.744 E16.41765
G1 X130.586 Y166.744 E16.49723
G1 X128.996 Y166.778 E16.5462
G1 X117.44 Y166.782 E16.90197
G1 X115.171 Y166.744 E16.97184
G1 X112.586 Y166.744 E17.05142
G1 X110.996 Y166.778 E17.10039
G1 X99.611 Y166.782 E17.4509
G1 X98.728 Y166.769 E17.47809
G1 X97.763 Y166.71 E17.50785
G1 X96.808 Y166.566 E17.53759
G1 X95.867 Y166.337 E17.5674
G1 X94.982 Y166.037 E17.59617
G1 X94.069 Y165.635 E17.62689
G1 X93.251 Y165.185 E17.65563
G1 X92.422 Y164.628 E17.68638
G1 X91.72 Y164.062 E17.71414
G1 X90.978 Y163.344 E17.74593
G1 X90.347 Y162.612 E17.77568
G1 X89.801 Y161.854 E17.80444
G1 X89.294 Y161.001 E17.83499
G1 X88.964 Y160.326 E17.85812
G1 X88.741 Y159.818 E17.87521
G1 X86.653 Y154.785 E18.04296
G1 X86.38 Y154.102 E18.06561
G1 X86.064 Y153.189 E18.09535
G1 X85.843 Y152.314 E18.12314
G1 X85.68 Y151.308 E18.15451
G1 X85.633 Y150.755 E18.1716
G1 X85.562 Y149.615 E18.20677
G1 X85.376 Y145.422 E18.33598
G1 X85.35 Y144.534 E18.36333
G1 X85.367 Y143.568 E18.39308
G1 X85.465 Y142.638 E18.42187
G1 X85.656 Y141.657 E18.45264
G1 X85.916 Y140.76 E18.48139
G1 X86.277 Y139.829 E18.51213
G1 X86.676 Y139.02 E18.53991
G1 X87.195 Y138.167 E18.57065
G1 X87.788 Y137.362 E18.60143
G1 X88.43 Y136.64 E18.63117
G1 X89.085 Y136.02 E18.65894
G1 X89.868 Y135.4 E18.68969
G0 F6000 X90.067 Y135.703
G1 F1200 X90.874 Y135.173 E18.71941
G1 X91.699 Y134.732 E18.74821
G1 X92.558 Y134.367 E18.77695
G1 X93.447 Y134.078 E18.80573
G1 X94.358 Y133.869 E18.8345
G1 X95.252 Y133.745 E18.86229
G1 X96.091 Y133.699 E18.88816
G1 X96.887 Y133.687 E18.91267
G1 X113.464 Y133.686 E19.42303
G1 X114.235 Y133.676 E19.44677
G1 X114.472 Y133.686 E19.45407
G1 X131.464 Y133.686 E19.97721
G1 X132.235 Y133.676 E20.00095
G1 X132.472 Y133.686 E20.00825
G1 X149.464 Y133.686 E20.53139
G1 X150.235 Y133.676 E20.55513
G1 X150.472 Y133.686 E20.56243
G1 X167.464 Y133.686 E21.08557
G1 X168.235 Y133.676 E21.10931
G1 X168.472 Y133.686 E21.11661
G1 X185.464 Y133.686 E21.63975
G1 X186.235 Y133.676 E21.66349
G1 X186.472 Y133.686 E21.67079
G1 X203.204 Y133.687 E22.18592
G1 X203.914 Y133.698 E22.20778
G1 X204.846 Y133.754 E22.23653
G1 X205.771 Y133.893 E22.26533
G1 X206.679 Y134.113 E22.29409
G1 X207.564 Y134.412 E22.32285
G1 X208.42 Y134.789 E22.35165
G1 X209.237 Y135.239 E22.38036
G1 X209.987 Y135.741 E22.40815
G1 X210.739 Y136.349 E22.43792
G1 X211.41 Y136.999 E22.46668
G1 X212.021 Y137.706 E22.49545
G1 X212.567 Y138.464 E22.52421
G1 X213.029 Y139.239 E22.55199
G1 X213.448 Y140.111 E22.58177
G1 X213.775 Y140.986 E22.61053
G1 X214.024 Y141.887 E22.63931
G1 X214.187 Y142.774 E22.66708
G1 X214.278 Y143.734 E22.69677
G1 X214.286 Y144.546 E22.72177
G1 X214.263 Y145.344 E22.74634
G1 X214.066 Y149.779 E22.88302
G1 X214.016 Y150.658 E22.91013
G1 X213.924 Y151.555 E22.93789
G1 X213.742 Y152.504 E22.96764
G1 X213.493 Y153.371 E22.99541
G1 X213.307 Y153.886 E23.01227
G1 X212.895 Y154.93 E23.04682
G1 X211.105 Y159.252 E23.19084
G1 X210.769 Y160.035 E23.21708
G1 X210.362 Y160.876 E23.24584
G1 X209.882 Y161.678 E23.27462
G1 X209.333 Y162.433 E23.30336
G1 X208.719 Y163.138 E23.33214
G1 X208.045 Y163.786 E23.36092
G1 X207.316 Y164.371 E23.3897
G1 X206.566 Y164.872 E23.41747
G1 X205.719 Y165.336 E23.4472
G1 X204.892 Y165.698 E23.475
G1 X203.975 Y166.005 E23.50477
G1 X203.066 Y166.221 E23.53353
G1 X202.146 Y166.355 E23.56216
G1 X201.44 Y166.403 E23.58394
G1 X200.853 Y166.417 E23.60202
G1 X189.444 Y166.419 E23.95327
G1 X187.138 Y166.38 E24.02428
G1 X184.541 Y166.382 E24.10423
G1 X183.005 Y166.415 E24.15153
G1 X171.447 Y166.419 E24.50737
G1 X169.157 Y166.381 E24.57788
G1 X166.559 Y166.381 E24.65787
G1 X164.983 Y166.415 E24.7064
G1 X153.445 Y166.419 E25.06162
G1 X151.235 Y166.382 E25.12967
G1 X148.645 Y166.38 E25.20941
G1 X147.04 Y166.415 E25.25884
G1 X135.446 Y166.419 E25.61578
G1 X133.177 Y166.381 E25.68565
G1 X130.578 Y166.381 E25.76567
G1 X128.996 Y166.415 E25.81438
G1 X117.446 Y166.419 E26.16998
G1 X115.177 Y166.381 E26.23984
G1 X112.578 Y166.381 E26.31986
G1 X110.996 Y166.415 E26.36857
G1 X99.616 Y166.419 E26.71893
G1 X98.75 Y166.407 E26.7456
G1 X97.817 Y166.351 E26.77437
G1 X96.893 Y166.213 E26.80314
G1 X95.984 Y165.993 E26.83193
G1 X95.099 Y165.693 E26.8607
G1 X94.244 Y165.317 E26.88946
G1 X93.453 Y164.883 E26.91723
G1 X92.65 Y164.345 E26.94699
G1 X91.948 Y163.779 E26.97475
G1 X91.253 Y163.107 E27.00452
G1 X90.642 Y162.4 E27.03329
G1 X90.096 Y161.642 E27.06205
G1 X89.62 Y160.841 E27.09073
G1 X89.296 Y160.18 E27.1134
G1 X89.076 Y159.679 E27.13024
G1 X86.99 Y154.65 E27.29786
G1 X86.723 Y153.983 E27.31998
G1 X86.416 Y153.1 E27.34876
G1 X86.195 Y152.225 E27.37655
G1 X86.042 Y151.277 E27.40611
G1 X85.995 Y150.733 E27.42292
G1 X85.925 Y149.599 E27.4579
G1 X85.739 Y145.411 E27.58697
G1 X85.713 Y144.54 E27.61379
G1 X85.728 Y143.606 E27.64255
G1 X85.826 Y142.676 E27.67134
G1 X86.005 Y141.758 E27.70014
G1 X86.265 Y140.861 E27.72889
G1 X86.603 Y139.99 E27.75766
G1 X87.002 Y139.181 E27.78543
G1 X87.487 Y138.382 E27.8142
G1 X88.06 Y137.603 E27.84398
G1 X88.68 Y136.904 E27.87274
G1 X89.335 Y136.284 E27.90051
G1 X90.067 Y135.703 E27.92928
G0 F6000 X90.292 Y135.988
G1 F1200 X91.046 Y135.493 E27.95705
G1 X91.841 Y135.066 E27.98483
G1 X92.671 Y134.712 E28.01261
G1 X93.529 Y134.432 E28.0404
G1 X94.408 Y134.229 E28.06817
G1 X95.302 Y134.105 E28.09596
G1 X96.097 Y134.062 E28.12047
G1 X96.887 Y134.05 E28.1448
G1 X113.469 Y134.049 E28.65531
G1 X114.22 Y134.039 E28.67843
G1 X114.457 Y134.049 E28.68574
G1 X131.469 Y134.049 E29.20949
G1 X132.22 Y134.039 E29.23261
G1 X132.457 Y134.049 E29.23992
G1 X149.469 Y134.049 E29.76367
G1 X150.22 Y134.039 E29.78679
G1 X150.457 Y134.049 E29.7941
G1 X167.469 Y134.049 E30.31785
G1 X168.22 Y134.039 E30.34097
G1 X168.457 Y134.049 E30.34827
G1 X185.469 Y134.049 E30.87203
G1 X186.22 Y134.039 E30.89515
G1 X186.457 Y134.049 E30.90245
G1 X203.199 Y134.05 E31.41789
G1 X203.893 Y134.06 E31.43926
G1 X204.793 Y134.113 E31.46702
G1 X205.686 Y134.246 E31.49481
G1 X206.563 Y134.457 E31.52259
G1 X207.418 Y134.744 E31.55035
G1 X208.245 Y135.107 E31.57816
G1 X209.035 Y135.541 E31.60591
G1 X209.785 Y136.043 E31.63369
G1 X210.487 Y136.61 E31.66148
G1 X211.136 Y137.237 E31.68926
G1 X211.727 Y137.919 E31.71704
G1 X212.255 Y138.65 E31.7448
G1 X212.717 Y139.425 E31.77258
G1 X213.108 Y140.239 E31.80038
G1 X213.425 Y141.083 E31.82814
G1 X213.667 Y141.953 E31.85594
G1 X213.83 Y142.84 E31.88371
G1 X213.915 Y143.738 E31.91148
G1 X213.923 Y144.535 E31.93602
G1 X213.9 Y145.328 E31.96044
G1 X213.704 Y149.758 E32.09696
G1 X213.655 Y150.621 E32.12358
G1 X213.563 Y151.518 E32.15134
G1 X213.393 Y152.404 E32.17911
G1 X213.144 Y153.271 E32.20688
G1 X212.969 Y153.753 E32.22267
G1 X212.56 Y154.791 E32.25702
G1 X210.771 Y159.109 E32.40092
G1 X210.442 Y159.877 E32.42664
G1 X210.05 Y160.69 E32.45443
G1 X209.588 Y161.465 E32.4822
G1 X209.059 Y162.195 E32.50996
G1 X208.467 Y162.877 E32.53776
G1 X207.817 Y163.503 E32.56555
G1 X207.114 Y164.069 E32.59333
G1 X206.364 Y164.57 E32.6211
G1 X205.573 Y165.003 E32.64887
G1 X204.746 Y165.365 E32.67666
G1 X203.891 Y165.652 E32.70443
G1 X203.013 Y165.862 E32.73222
G1 X202.121 Y165.993 E32.75998
G1 X201.431 Y166.04 E32.78127
G1 X200.853 Y166.054 E32.79907
G1 X189.45 Y166.056 E33.15014
G1 X187.144 Y166.017 E33.22114
G1 X184.533 Y166.019 E33.30153
G1 X183.005 Y166.052 E33.34858
G1 X171.453 Y166.056 E33.70423
G1 X169.163 Y166.018 E33.77475
G1 X166.551 Y166.018 E33.85516
G1 X164.983 Y166.052 E33.90345
G1 X153.451 Y166.056 E34.25849
G1 X151.241 Y166.019 E34.32654
G1 X148.637 Y166.017 E34.40671
G1 X147.04 Y166.052 E34.45589
G1 X135.452 Y166.056 E34.81265
G1 X133.183 Y166.018 E34.88251
G1 X130.57 Y166.018 E34.96296
G1 X128.996 Y166.052 E35.01143
G1 X117.452 Y166.056 E35.36684
G1 X115.183 Y166.018 E35.43671
G1 X112.57 Y166.018 E35.51715
G1 X110.996 Y166.052 E35.56562
G1 X99.621 Y166.056 E35.91583
G1 X98.771 Y166.045 E35.942
G1 X97.87 Y165.992 E35.96979
G1 X96.978 Y165.86 E35.99755
G1 X96.1 Y165.649 E36.02535
G1 X95.245 Y165.361 E36.05313
G1 X94.419 Y164.999 E36.08089
G1 X93.628 Y164.565 E36.10867
G1 X92.878 Y164.062 E36.13647
G1 X92.176 Y163.496 E36.16423
G1 X91.527 Y162.869 E36.19202
G1 X90.936 Y162.187 E36.2198
G1 X90.408 Y161.456 E36.24756
G1 X89.946 Y160.681 E36.27534
G1 X89.628 Y160.034 E36.29753
G1 X89.411 Y159.54 E36.31415
G1 X87.327 Y154.515 E36.48163
G1 X87.066 Y153.863 E36.50325
G1 X86.768 Y153.011 E36.53104
G1 X86.547 Y152.136 E36.55882
G1 X86.404 Y151.245 E36.58661
G1 X86.357 Y150.711 E36.60311
G1 X86.288 Y149.583 E36.6379
G1 X86.102 Y145.4 E36.76681
G1 X86.076 Y144.545 E36.79315
G1 X86.089 Y143.643 E36.82092
G1 X86.182 Y142.745 E36.84872
G1 X86.354 Y141.859 E36.8765
G1 X86.604 Y140.992 E36.90428
G1 X86.929 Y140.151 E36.93204
G1 X87.328 Y139.342 E36.95981
G1 X87.797 Y138.571 E36.9876
G1 X88.332 Y137.844 E37.01539
G1 X88.93 Y137.168 E37.04317
G1 X89.585 Y136.548 E37.07094
G1 X90.292 Y135.988 E37.09871
G1 F1500 E33.59871
G1 F300 Z0.7
;MESH:main-actuator-finger-left.3mf
G0 F6000 X97.471 Y150.61 Z0.7
;TYPE:WALL-INNER
G1 F300 Z0.2
G1 F1500 E37.09871
G1 F688.2 X97.519 Y150.757 E37.10701
G1 F708.3 X97.699 Y151.214 E37.13263
G1 X97.767 Y151.352 E37.14065
G0 F6000 X98.161 Y152.011
G0 X98.436 Y152.278
